symbols/web/hdr_auto/materialsymbolsrounded/hdr_auto_fill1_24px.svg

<svg xmlns="http://www.w3.org/2000/svg" height="24" width="24"><path d="M8.175 17q.25 0 .5-.163.25-.162.325-.387l.8-2.25h4.4l.8 2.25q.075.225.312.387.238.163.513.163.525 0 .775-.35t.05-.85l-3.3-8.875q-.15-.375-.538-.65Q12.425 6 12 6q-.425 0-.812.275-.388.275-.538.65L7.35 15.8q-.2.5.05.85t.775.35Zm2.175-4.4 1.6-4.55h.1l1.6 4.55ZM12 22q-2.075 0-3.9-.788-1.825-.787-3.175-2.137-1.35-1.35-2.137-3.175Q2 14.075 2 12t.788-3.9q.787-1.825 2.137-3.175 1.35-1.35 3.175-2.138Q9.925 2 12 2t3.9.787q1.825.788 3.175 2.138 1.35 1.35 2.137 3.175Q22 9.925 22 12t-.788 3.9q-.787 1.825-2.137 3.175-1.35 1.35-3.175 2.137Q14.075 22 12 22Z"/></svg>

<svg xmlns="http://www.w3.org/2000/svg" height="24" width="24"><path d="M8.175 17Q8.425 17 8.675 16.837Q8.925 16.675 9 16.45L9.8 14.2H14.2L15 16.45Q15.075 16.675 15.312 16.837Q15.55 17 15.825 17Q16.35 17 16.6 16.65Q16.85 16.3 16.65 15.8L13.35 6.925Q13.2 6.55 12.812 6.275Q12.425 6 12 6Q11.575 6 11.188 6.275Q10.8 6.55 10.65 6.925L7.35 15.8Q7.15 16.3 7.4 16.65Q7.65 17 8.175 17ZM10.35 12.6 11.95 8.05H12.05L13.65 12.6ZM12 22Q9.925 22 8.1 21.212Q6.275 20.425 4.925 19.075Q3.575 17.725 2.788 15.9Q2 14.075 2 12Q2 9.925 2.788 8.1Q3.575 6.275 4.925 4.925Q6.275 3.575 8.1 2.787Q9.925 2 12 2Q14.075 2 15.9 2.787Q17.725 3.575 19.075 4.925Q20.425 6.275 21.212 8.1Q22 9.925 22 12Q22 14.075 21.212 15.9Q20.425 17.725 19.075 19.075Q17.725 20.425 15.9 21.212Q14.075 22 12 22Z"/></svg>
